images/icons/cart.svg

<svg width="25" height="25" viewBox="0 0 25 25" fill="none" xmlns="http://www.w3.org/2000/svg">
<path d="M24.7925 6.74143C24.6379 6.51462 24.4303 6.40121 24.1699 6.40121H7.59277L6.32324 1.94052C6.20931 1.5373 6.05469 1.19288 5.85938 0.907258C5.66406 0.62164 5.45654 0.420027 5.23682 0.302419C5.01709 0.184812 4.82585 0.105007 4.66309 0.063004C4.50033 0.0210013 4.33756 0 4.1748 0H0.830078C0.61849 0 0.439453 0.0756048 0.292969 0.226815C0.146484 0.378024 0.0732422 0.571237 0.0732422 0.806452C0.0732422 0.94086 0.105794 1.07107 0.170898 1.19708C0.236003 1.32308 0.32959 1.41969 0.45166 1.4869C0.57373 1.5541 0.69987 1.5877 0.830078 1.5877H4.1748C4.23991 1.5877 4.30094 1.5961 4.35791 1.6129C4.41488 1.6297 4.49219 1.70111 4.58984 1.82712C4.6875 1.95312 4.76888 2.14214 4.83398 2.39415L9.15527 18.7752C9.18783 18.876 9.24072 18.9726 9.31396 19.065C9.38721 19.1574 9.47266 19.2288 9.57031 19.2792C9.66797 19.3296 9.77376 19.3548 9.8877 19.3548H20.4346C20.5973 19.3548 20.7479 19.3044 20.8862 19.2036C21.0246 19.1028 21.1182 18.9768 21.167 18.8256L24.9023 7.48488C24.9837 7.21606 24.9471 6.96825 24.7925 6.74143ZM19.8975 17.7419H10.498L8.00781 8.01411H23.0469L19.8975 17.7419ZM18.3594 20.9677C17.8223 20.9677 17.3625 21.1652 16.98 21.56C16.5975 21.9548 16.4062 22.4294 16.4062 22.9839C16.4062 23.5383 16.5975 24.0129 16.98 24.4078C17.3625 24.8026 17.8223 25 18.3594 25C18.8965 25 19.3563 24.8026 19.7388 24.4078C20.1213 24.0129 20.3125 23.5383 20.3125 22.9839C20.3125 22.4294 20.1213 21.9548 19.7388 21.56C19.3563 21.1652 18.8965 20.9677 18.3594 20.9677ZM11.3281 20.9677C10.9701 20.9677 10.6405 21.0601 10.3394 21.245C10.0382 21.4298 9.80225 21.6734 9.63135 21.9758C9.46045 22.2782 9.375 22.6142 9.375 22.9839C9.375 23.5383 9.56624 24.0129 9.94873 24.4078C10.3312 24.8026 10.791 25 11.3281 25C11.8652 25 12.325 24.8026 12.7075 24.4078C13.09 24.0129 13.2812 23.5383 13.2812 22.9839C13.2812 22.8495 13.269 22.7151 13.2446 22.5806C13.2202 22.4462 13.1836 22.3202 13.1348 22.2026C13.0859 22.085 13.0249 21.9716 12.9517 21.8624C12.8784 21.7532 12.797 21.6524 12.7075 21.56C12.618 21.4676 12.5203 21.3836 12.4146 21.308C12.3088 21.2324 12.1989 21.1694 12.085 21.119C11.971 21.0685 11.849 21.0307 11.7188 21.0055C11.5885 20.9803 11.4583 20.9677 11.3281 20.9677Z" fill="white"/>
</svg>

<svg width="25" height="25" fill="none" xmlns="http://www.w3.org/2000/svg"><path d="M24.793 6.741a.718.718 0 00-.623-.34H7.593l-1.27-4.46A3.508 3.508 0 005.86.907C5.664.622 5.457.42 5.237.302a2.676 2.676 0 00-.574-.239A1.947 1.947 0 004.175 0H.83a.72.72 0 00-.537.227.799.799 0 00-.22.58c0 .134.033.264.098.39a.679.679 0 00.28.29c.123.067.249.1.38.1h3.344c.065 0 .126.01.183.026.057.017.134.088.232.214s.179.315.244.567l4.321 16.381a.932.932 0 00.159.29.786.786 0 00.256.214.69.69 0 00.318.076h10.547a.75.75 0 00.451-.151.744.744 0 00.281-.378l3.735-11.341a.83.83 0 00-.11-.744zm-4.895 11h-9.4l-2.49-9.727h15.039l-3.15 9.728zm-1.539 3.227a1.85 1.85 0 00-1.379.592c-.383.395-.574.87-.574 1.424 0 .554.192 1.029.574 1.424.383.395.842.592 1.38.592.537 0 .996-.197 1.379-.592.382-.395.573-.87.573-1.424 0-.555-.19-1.03-.573-1.424a1.852 1.852 0 00-1.38-.592zm-7.03 0c-.359 0-.689.092-.99.277a2 2 0 00-.964 1.739c0 .554.191 1.029.574 1.424a1.85 1.85 0 001.38.592c.536 0 .996-.197 1.378-.592.383-.395.574-.87.574-1.424 0-.135-.012-.269-.036-.403a1.841 1.841 0 00-.293-.719 2.179 2.179 0 00-.537-.554 1.697 1.697 0 00-.696-.302 2.053 2.053 0 00-.39-.038z" fill="#fff"/></svg>
